X: 3
P: Reinlendar med Turar
Z: 1997 by John Chambers <jc@trillian.mit.edu>
M: C|
L: 1/8
K: D
 (3ABc \
| "D"d2 F2 A2 BA | "A7"G2 C2 E2 ef \
|1,3"A7"g>f ed c>B AG | "D"F>G AB "A7"A2 \
:|2,4 "A7"g>f ed c>A Bc | "D"d2 d2 d2 :|
|: AG \
| "D"F2 A2 d3 e | "A7"d2 c2 c4 | b2 c2 a2 c2 | "D"d>c de f2 d2 \
| "D"F2 A2 d3 e | "A7"d2 c2 c4 | b2 c2 a2 c2 | "D"d2 d2 d2 :|
